X:1
T:[ID 1-115]
T:[ID 1-115]
T:Bezeichnung standardisiert: Boure Boure
T:Urheber unbekannt Datum in der hier transkribierten schriftlichen Quelle: vermutlich vor 1767
C:Urheber unbekannt
C:Datum in der hier transkribierten schriftlichen Quelle: vermutlich vor 1767
L:1/8
M:none
K:D
V:1 treble 
V:1
 d2 cB AGFE | D2 d2 c2 e2 | D2 f2 E2 g2 | F2 a2 f2 ed | edcB AGFE | DdcB AGFE | D2 d2 c2 e2 | %7
 D2 f2 E2 g2 | F2 a2 A2 ce | d6 :: a2 | G2 b2 F2 a2 | G2 b2 F2 a2 | F2 a2 E2 g2 | F2 a2 E2 g2 | %15
 e2 d2 c2 d2 | edcB AGFE | DdcB AGFE | D2 d2 c2 e2 | D2 f2 E2 g2 | F2 a2 A2 Bc | d6 :| %22

